!!!COM: Bach, Johann Sebastian
!!!CDT: 1685/3//-1750/7/28/
!!!OTL@@DE: Aus meines Herzens Grunde
!!!OTL@EN:  From the depths of my heart
!!!AGN: 4-Part Chorale
!!!SCT: BH 001
!!!SCT: BWV 269
!!!ONB1: Text by Georg Niege; 16th Century secular melody, first appears
!!!ONB2: in sacred use in Neu Catechismus-Gesangbchlein, Hamburg, 1598.
!!!YEC: Copyright 2001 by Craig Stuart Sapp
!!!license: GNU General Public License (http://www.gnu.org/copyleft/gpl.html)
!!!SMA: 371 Bach Chorales, edited by Ludwig Erk, C.F. Peters
!!!PDT: 1850, 1865
!!!ONB: Harmony and Root analysis done manually by Craig Sapp
!! Beat 2 of measure 1 chord could also be IVb (with root on C)
**kern
!bass
*Iorgan
*clefF4
*k[f#]
*G:
*M3/4
*MM60
*>[A,A,B]
*>A
4GG
=
4G
4E
.
4F#
=
4G
4D
.
4E
=
4C
.
8BB
8AA
4GG
=
2D;
4GG
=
4FF#
4GG
4AA
=
4BB
4C
4D
.
=
2GG;
=:|!
*>B
4GG
=
4GG
.
4AA
.
4BB
.
=
4.BB
.
.
8AA
4GG
=
2D;
[4E
=
4E]
4D
.
4C
=
4.BB
.
8C
4D
.
=
8GG
8AA
4BB
4GG
=
2C;
4GG
=
4FF#
.
4GG
.
4AA
=
4BB
4GG
4D
.
=
8E
8D
8C
8BB
8AA
8GG
=
2D;
[4G
=
4G]
4F#
[4E
.
=
8E]
8D
4C
4D
.
=
2GG;
==
*-
**kern
!tenor
*Iorgan
*clefF4
*k[f#]
*G:
*M3/4
*MM60
*>[A,A,B]
*>A
4B
=
4B
8c
8B
4A
=
4G
4F#
.
4G
=
8c
8B
4c
.
4d
=
2d;
4d
=
4A
4B
4c
=
4d
4e
8d
8c
=
2B;
=:|!
*>B
4d
=
4d
.
4c
.
8B
8A
=
8B
8c
4d
.
4d
=
2d;
4B
=
4G
4B
.
4e
=
2d
.
.
4d
.
=
2.d
.
.
.
=
2c;
4d
=
8d
8c
4B
.
4c
=
2d
.
8d
8c
=
4B
.
4c
.
4d
.
=
2d;
4d
=
2d
.
4e
.
=
2e
.
.
8d
8c
=
2B;
==
*-
**kern
!alto
*Iorgan
*clefG2
*k[f#]
*G:
*M3/4
*MM60
*>[A,A,B]
*>A
4d
=
4d
4e
.
4d
=
2d
.
.
4B
=
8e
8d
8e
8f#
4g
=
2f#;
4g
=
4d
4e
4f#
=
2g
.
4f#
.
=
2d;
=:|!
*>B
[4g
=
8g]
8f#
8e
8f#
[4g
.
=
8g]
8a
8g
8f#
4g
=
2f#;
4e
=
4e
8f#
8g
4a
=
4a
4.g
.
.
8f#
=
2g
.
.
4fn
=
2e;
4g
=
4.a
.
.
8g
4f#
=
2g
.
[4f#
.
=
8f#]
8e
8e
8f#
4g
.
=
2f#;
4g
=
2a
.
8g
8f#
=
2g
.
.
4f#
.
=
2d;
==
*-
**kern
!sprno
*Iorgan
*clefG2
*k[f#]
*G:
*M3/4
*MM60
*>[A,A,B]
*>A
4g
=
2g
.
.
4dd
=
4.b
.
8a
4g
=
4.g
.
.
8a
4b
=
2a;
4b
=
2dd
.
4cc
=
4b
2a
.
.
=
2g;
=:|!
*>B
4b
=
4b
.
4cc
.
4dd
.
=
4.dd
.
.
8cc
4b
=
2a;
4g
=
2b
.
.
4cc
=
2dd
.
.
4cc
.
=
2.b
.
.
.
=
2g;
4b
=
2dd
.
.
.
4cc
=
2b
.
4a
.
=
4.g
.
.
8a
4b
.
=
2a;
4b
=
2dd
.
4cc
.
=
4b
.
2a
.
.
=
2g;
==
*-
**root
!
*Iorgan
*
*k[f#]
*G:
*M3/4
*MM60
*>[A,A,B]
*>A
4GG
=
4GG
4EE
.
4DD
=
4GG
4DD
.
4EE
=
4CC
.
8CC
8FF#
4GG
=
2DD;
4GG
=
4DD
4EE
4FF#
=
4GG
4AA
4DD
.
=
2GG;
=:|!
*>B
4GG
=
4GG
.
4AA
.
4GG
.
=
4.GG
.
.
8DD
4GG
=
2DD;
4EE
=
4EE
4BB
.
4AA
=
2GG
.
.
4DD
.
=
4GG
.
4GG
4GG
=
2CC;
4GG
=
4DD
.
4GG
.
4FF#
=
2GG
.
4DD
.
=
4EE
.
8CC
8FF#
4GG
.
=
2DD;
4GG
=
2DD
.
4CC
.
=
4EE
.
4AA
4DD
.
=
2GG;
==
*-
**harm
!
*
*
*k[f#]
*G:
*M3/4
*MM60
*>[A,A,B]
*>A
I
=
I
IVb[vi]
.
Vb
=
I
V
.
vi
=
IV
.
IV7d
viiob
I
=
V;
I
=
Vb
vi7b
viiob
=
Ib
ii7b
V7
.
=
I;
=:|!
*>B
I
=
I
.
ii
.
Ib
.
=
Ib
.
.
V7c
I
=
V;
vi
=
vi
iiib[Ic]
.
iib
=
Ib
.
.
V7
.
=
I
.
Ib
V7/IV
=
IV;
I
=
Vb
.
I
.
viiob
=
I
.
V
.
=
vi
.
IV
viio7d
I
.
=
V;
I
=
Vb
.
IVb
.
=
vi
.
ii7b
V7
.
=
I;
==
*-
!!linebreak: 2
!!chor2scor: -l 2 -s 0.6 -o %b.pmx
